docs/.gitbook/assets/icon-wifi-disabled-16@dark.svg

<svg width="32" height="32" viewBox="0 0 16 16" fill="none" xmlns="http://www.w3.org/2000/svg">
<rect x="0" y="0" width="16" height="16" fill="#181c1f"/>
<path fill-rule="evenodd" clip-rule="evenodd" d="M5.36039 2.31413C5.11963 1.97707 4.65122 1.899 4.31416 2.13976C3.9771 2.38051 3.89903 2.84893 4.13979 3.18599L11.6398 13.686C11.8805 14.023 12.349 14.1011 12.686 13.8604C13.0231 13.6196 13.1011 13.1512 12.8604 12.8141L10.6038 9.6549C10.6217 9.6733 10.6364 9.6889 10.6477 9.70125C10.66 9.71454 10.6684 9.724 10.6728 9.72905L10.6762 9.73302C10.9419 10.0487 11.413 10.0907 11.7302 9.82628C12.0484 9.56111 12.0914 9.08818 11.8263 8.76998L11.2501 9.25011C11.8263 8.76998 11.8261 8.76976 11.8259 8.76954L11.8255 8.76908L11.8247 8.76806L11.8226 8.76566L11.8173 8.75941L11.8017 8.74132C11.789 8.72686 11.7719 8.70768 11.7505 8.6844C11.7076 8.63789 11.6471 8.5748 11.5697 8.50028C11.4154 8.35166 11.1915 8.1551 10.9042 7.95342C10.3937 7.59515 9.66158 7.20599 8.75022 7.05989L6.9659 4.56185C7.2944 4.52213 7.63923 4.50006 8.00009 4.50006C9.8385 4.50006 11.2709 5.07362 12.2448 5.64651C12.7322 5.9332 13.1026 6.21862 13.3479 6.42887C13.4704 6.53385 13.5611 6.61961 13.619 6.67671C13.648 6.70525 13.6687 6.72657 13.681 6.73949L13.6932 6.75241C13.6941 6.75346 13.6946 6.75394 13.6945 6.75384L13.694 6.75326L13.6935 6.75273C13.9707 7.05971 14.4442 7.08434 14.7518 6.80753C15.0597 6.53043 15.0847 6.05622 14.8076 5.74833L14.2705 6.23169C14.8076 5.74833 14.8073 5.74808 14.8071 5.74782L14.8066 5.74726L14.8054 5.74595L14.8024 5.74265L14.7939 5.73337C14.7871 5.726 14.778 5.71632 14.7667 5.70447C14.7441 5.68077 14.7126 5.64838 14.6722 5.60856C14.5914 5.52894 14.4751 5.41939 14.3241 5.28999C14.0225 5.0315 13.5805 4.69192 13.0054 4.35361C11.8543 3.67649 10.1617 3.00006 8.00009 3.00006C7.28885 3.00006 6.62729 3.07337 6.0184 3.1963C6.0103 3.19794 6.00226 3.1997 5.99428 3.20158L5.36039 2.31413ZM14.2501 6.25006C13.6926 6.75178 13.6928 6.75201 13.693 6.75223L13.6926 6.75178L14.2501 6.25006ZM8.0001 11.0001C7.44781 11.0001 7.0001 11.4478 7.0001 12.0001C7.0001 12.5523 7.44781 13.0001 8.0001 13.0001C8.55238 13.0001 9.0001 12.5523 9.0001 12.0001C9.0001 11.4478 8.55238 11.0001 8.0001 11.0001ZM5.80017 8.2326C6.08642 8.53198 6.07578 9.00674 5.7764 9.29299L5.2684 9.77872C4.96902 10.065 4.49426 10.0543 4.20801 9.75494C3.92175 9.45556 3.93239 8.98081 4.23178 8.69455L4.73977 8.20883C5.03916 7.92257 5.51391 7.93322 5.80017 8.2326ZM3.04073 6.11282C3.41682 5.93924 3.58099 5.49365 3.40741 5.11756C3.23383 4.74147 2.78823 4.57731 2.41214 4.75089C2.16207 4.86631 1.88493 5.07789 1.6838 5.24943C1.49307 5.41209 1.24561 5.64498 1.11676 5.8481C0.894892 6.19788 0.998582 6.6613 1.34836 6.88317C1.69814 7.10504 2.16156 7.00135 2.38343 6.65157C2.38243 6.65315 2.38157 6.65448 2.38087 6.65557C2.37941 6.65785 2.37865 6.65902 2.37873 6.65908C2.37881 6.65914 2.37985 6.65792 2.382 6.6554C2.38923 6.64688 2.40905 6.62355 2.44741 6.58449C2.503 6.52786 2.57592 6.46001 2.65715 6.39074C2.83673 6.23758 2.98552 6.13831 3.04073 6.11282Z" fill="#fff"/>
</svg>

<svg xmlns="http://www.w3.org/2000/svg" width="32" height="32" fill="none" viewBox="0 0 16 16"><path fill="#181c1f" d="M0 0h16v16H0z"/><path fill="#fff" fill-rule="evenodd" d="M5.36 2.314a.75.75 0 1 0-1.22.872l7.5 10.5a.75.75 0 0 0 1.22-.872l-2.256-3.16.069.075.003.004a.75.75 0 0 0 1.15-.963l-.576.48.576-.48-.001-.002-.002-.002-.006-.007-.015-.018a3 3 0 0 0-.232-.24 5.6 5.6 0 0 0-.666-.548A5.2 5.2 0 0 0 8.75 7.06L6.966 4.562Q7.458 4.5 8 4.5c1.838 0 3.27.574 4.245 1.147a7.7 7.7 0 0 1 1.103.782 5 5 0 0 1 .333.31l.012.013.002.002h-.001v-.001a.75.75 0 0 0 1.114-1.005l-.537.484.536-.484-.002-.002-.003-.003-.008-.01a3 3 0 0 0-.122-.124 7 7 0 0 0-.348-.319 9 9 0 0 0-1.319-.936A9.8 9.8 0 0 0 8 3a10 10 0 0 0-2.006.202zm8.89 3.936-.557.502zM8 11a1 1 0 1 0 0 2 1 1 0 0 0 0-2M5.8 8.233a.75.75 0 0 1-.024 1.06l-.508.486a.75.75 0 0 1-1.036-1.084l.508-.486a.75.75 0 0 1 1.06.024m-2.76-2.12a.75.75 0 1 0-.628-1.362c-.25.115-.527.327-.728.498-.19.163-.438.396-.567.6a.75.75 0 0 0 1.266.803l-.002.004-.002.003.003-.004.065-.07a3.3 3.3 0 0 1 .594-.472" clip-rule="evenodd"/></svg>
